X:1
T: Playing (in) the Field
N:
C:G.F. Handel
S:Tune is "Entree"
A:
O:
R:
M:4/4
K:Em
I:speed 175
%W: A
% voice 1 (1 lines, 21 notes)
K:Em
M:4/4
L:1/16
b4 B4 b8 |a4 B4 a8 |g4 f2 g2 a2 g2 f2 e2 |^d4 e4 f4 B4 |e4 B4 c4 B4 |
%W:
% voice 1 (1 lines, 21 notes)
A4 G4 F4 E4 |A4 G2 F2 G4 E4 |G4 A4 B8 |e4 B4 A4 G4 |A2 G2 F2 G2 E8 |
%W: B
% voice 1 (1 lines, 24 notes)
G4 B4 d8 |B4 d4 g8 |d4 g4 b8 |c'2 b2 a2 g2 f4 d4 |g2 a2 b4 b4 a4 |g4 f4 g4 d4 |
%W:
% voice 1 (1 lines, 29 notes)
B2 c2 d4 d4 c4 |B4 A4 B4 G4 |g2 a2 b4 b4 a4 |a2 b2 c'4 c'4 b2 a2 |b2 c'2 d'4 b2 c'2 d'4 |d4 f4 g8 |
%W: C
% voice 1 (1 lines, 21 notes)
b4 B4 b8 |a4 B4 a8 |g4 f2 g2 a2 g2 f2 e2 |^d4 e4 f4 B4 |e4 B4 c4 B4 |
%W:
% voice 1 (1 lines, 21 notes)
A4 G4 F4 E4 |A4 G2 F2 G4 E4 |G4 A4 B8 |e4 B4 A4 G4 |A2 G2 F2 G2 E8 ||
